packages/elvis-assets-icons/icons/svg/src/warning_triangle.svg

<svg width="24" height="24" viewBox="0 0 24 24" fill="none" xmlns="http://www.w3.org/2000/svg">
<path fill-rule="evenodd" clip-rule="evenodd" d="M22.2352 20.5147L12.4949 2.95388C12.281 2.56831 11.718 2.56831 11.5042 2.9539L1.7648 20.5147C1.55973 20.8845 1.83187 21.3353 2.26015 21.3353H21.7398C22.1681 21.3353 22.4403 20.8844 22.2352 20.5147ZM23.7212 19.7175C24.5416 21.1966 23.453 23 21.7398 23H2.26015C0.547004 23 -0.541563 21.1967 0.278751 19.7176L10.0181 2.15679C10.8735 0.614444 13.1254 0.614394 13.9809 2.1567L23.7212 19.7175Z" fill="black"/>
<path d="M11.9824 19.8435C11.3702 19.8435 10.8716 19.3531 10.8716 18.7511C10.8716 18.1491 11.3702 17.6587 11.9824 17.6587C12.5946 17.6587 13.0932 18.1491 13.0932 18.7511C13.0932 19.3531 12.5946 19.8435 11.9824 19.8435Z" fill="black"/>
<path d="M11.9824 16.2021C11.5736 16.2021 11.2418 15.8758 11.2418 15.4738V8.19105C11.2418 7.78904 11.5736 7.46277 11.9824 7.46277C12.3901 7.46277 12.7229 7.78904 12.7229 8.19105V15.4738C12.7229 15.8748 12.3901 16.2021 11.9824 16.2021Z" fill="black"/>
</svg>

<svg width="24" height="24" fill="none" xmlns="http://www.w3.org/2000/svg"><path fill-rule="evenodd" clip-rule="evenodd" d="M22.235 20.515l-9.74-17.561a.569.569 0 00-.99 0l-9.74 17.56c-.205.37.067.821.495.821h19.48c.428 0 .7-.45.495-.82zm1.486-.797c.82 1.479-.268 3.282-1.981 3.282H2.26C.547 23-.542 21.197.28 19.718l9.74-17.561c.854-1.543 3.106-1.543 3.962 0l9.74 17.56z" fill="#000"/><path d="M11.982 19.843c-.612 0-1.11-.49-1.11-1.092 0-.602.498-1.092 1.11-1.092.613 0 1.111.49 1.111 1.092 0 .602-.498 1.092-1.11 1.092zM11.982 16.202a.735.735 0 01-.74-.728V8.19c0-.402.332-.728.74-.728s.74.326.74.728v7.283a.736.736 0 01-.74.728z" fill="#000"/></svg>
